app/img/contact/1.svg

<svg width="21" height="22" viewBox="0 0 21 22" fill="none" xmlns="http://www.w3.org/2000/svg">
<path d="M10.4824 2.21645C15.3253 2.21645 19.2662 6.15711 19.2662 11.0002C19.2662 15.8433 15.3253 19.784 10.4824 19.784C5.63953 19.784 1.69866 15.8431 1.69866 11.0002C1.69866 6.15731 5.63953 2.21645 10.4824 2.21645ZM10.4824 0.85C4.87602 0.85 0.332422 5.39381 0.332422 11C0.332422 16.6062 4.87623 21.15 10.4824 21.15C16.0886 21.15 20.6324 16.6062 20.6324 11C20.6324 5.39381 16.0888 0.85 10.4824 0.85Z" fill="#A2A2A4" stroke="#A2A2A4" stroke-width="0.3"/>
<path d="M9.26001 8.40195L9.26 8.40204C9.17546 8.92961 9.54092 9.79873 11.0949 10.3088C12.5551 10.7875 13.2861 11.4894 13.6345 12.1599C13.9811 12.8271 13.9366 13.4395 13.8913 13.7191C13.7129 14.8416 12.7788 15.7266 11.5567 16.0513V16.9545C11.5567 17.3903 11.2557 17.7713 10.7895 17.7713C10.3232 17.7713 10.0224 17.3903 10.0224 16.9545V16.1545C8.93634 16.0386 8.23766 15.6216 7.80865 15.1147C7.36479 14.5903 7.22109 13.9833 7.22109 13.5509C7.22109 13.104 7.56742 12.7344 8.02302 12.7344C8.47328 12.7344 8.83841 13.0977 8.84016 13.5477C8.84339 13.6205 8.87247 13.8645 9.09109 14.0914C9.31022 14.3188 9.74341 14.5533 10.6077 14.5533C11.5984 14.5533 12.2369 13.9656 12.317 13.4623L12.317 13.4623C12.3624 13.1767 12.2499 12.8841 11.9605 12.6036C11.6694 12.3214 11.2084 12.0627 10.5932 11.8607C8.14586 11.0574 7.46538 9.37565 7.66218 8.14442L9.26001 8.40195ZM9.26001 8.40195C9.33703 7.91952 9.82994 7.3806 10.8403 7.3806C11.4704 7.3806 11.8443 7.67542 12.0694 7.98846C12.2983 8.30683 12.3728 8.64526 12.3857 8.71343C12.4663 9.16025 12.9086 9.44274 13.3287 9.37259L13.3287 9.37259M9.26001 8.40195L13.3287 9.37259M13.3287 9.37259L13.33 9.37238M13.3287 9.37259L13.33 9.37238M13.33 9.37238C13.7866 9.29222 14.0346 8.85849 13.9589 8.42667L13.33 9.37238ZM11.5567 5.83435V4.80229C11.5567 4.36672 11.2557 3.98556 10.7895 3.98556C10.3231 3.98556 10.0224 4.36675 10.0224 4.80229V5.8385C8.79802 6.11049 7.84884 6.97507 7.66218 8.14439L11.5567 5.83435Z" fill="#A2A2A4" stroke="#A2A2A4" stroke-width="0.3"/>
</svg>

<svg width="21" height="22" fill="none" xmlns="http://www.w3.org/2000/svg"><path d="M10.482 2.216c4.843 0 8.784 3.941 8.784 8.784 0 4.843-3.94 8.784-8.784 8.784C5.64 19.784 1.7 15.844 1.7 11c0-4.843 3.94-8.784 8.783-8.784Zm0-1.366C4.876.85.332 5.394.332 11c0 5.606 4.544 10.15 10.15 10.15 5.607 0 10.15-4.544 10.15-10.15 0-5.606-4.543-10.15-10.15-10.15Z" fill="#A2A2A4" stroke="#A2A2A4" stroke-width=".3"/><path d="M9.26 8.402c-.085.528.28 1.397 1.835 1.907 1.46.479 2.191 1.18 2.54 1.85.346.668.302 1.28.256 1.56-.178 1.123-1.112 2.008-2.334 2.332v.904c0 .435-.301.816-.768.816-.466 0-.767-.38-.767-.817v-.8c-1.086-.115-1.784-.532-2.213-1.04a2.473 2.473 0 0 1-.588-1.563c0-.447.346-.817.802-.817.45 0 .815.364.817.814a.866.866 0 0 0 .251.543c.22.228.652.462 1.517.462.99 0 1.629-.587 1.709-1.09.045-.286-.067-.579-.357-.86-.29-.282-.752-.54-1.367-.742-2.447-.804-3.128-2.485-2.93-3.717l1.597.258Zm0 0c.077-.482.57-1.021 1.58-1.021.63 0 1.004.294 1.23.607.228.319.303.657.316.725a.83.83 0 0 0 .943.66M9.26 8.402l4.069.97m0 0h.001m-.001 0h.001m0 0c.457-.08.705-.514.629-.945l-.629.945Zm-1.773-3.538V4.802c0-.435-.301-.816-.768-.816-.466 0-.767.38-.767.816V5.84c-1.224.271-2.173 1.136-2.36 2.305l3.895-2.31Z" fill="#A2A2A4" stroke="#A2A2A4" stroke-width=".3"/></svg>
